X:1
T:Klang min vackra bjällra.
T:August Söderman (1832-1876)
T:Klang min vackra bjällra.
T:©PA Aglert
T:©PA Aglert
T:©PA Aglert
T:©PA Aglert
T:©PA Aglert
T:©PA Aglert
T:©PA Aglert
T:©PA Aglert
T:©PA Aglert
T:©PA Aglert
T:©PA Aglert
T:©PA Aglert
C:August Söderman (1832-1876)
Z:©PA Aglert
%%score [ 1 2 3 4 ]
L:1/8
Q:1/4=126
M:3/4
K:Eb
V:1 treble nm="S"
V:2 treble nm="A"
V:3 treble-8 nm="T"
V:4 bass nm="B"
V:1
!mf!"^Allegro  (c. 126)" !>!B2 z B BB | B4 B2 | cc c2 c2 | B4- B z | !>!B2- BB BB | B4 B2 | %6
w: Klang, min vack- ra|bjäll- ra,|i den se- na|kväll! *|Spring, * min ras- ka|få- le,|
 cc c2 c2 | B4- B z |!ff! e4 d2 | cc c2 B2 | AA A2 G2 | F4- F z | A4 G2 | FF F2 E2 | %14
w: ö- ver mo och|fjäll! *|Hem- åt|i- la vi med|vin- dens snab- ba|fart, *|där så|vi- la vi i|
!>(! DD D2 C2!>)! | B,4- B, z |!mf! E4 E2 | D4 D2 | E3"^rall." E EE | D2 D2 z2 | %20
w: mju- ka ar- mar|snart, *|och vår|lyc- ka|ing- en kan för-|tyc- ka.|
[Q:1/4=126]"^a tempo" BB B2 B2 | B4 B2 | BB B2 B2 | B6 | BB B2 B2 | B4 B2 | BB B2 B2 | B6 | %28
w: Al- la kväl- lens|norr- sken|fläm- ta där i|skyn,|al- la säl- la|min- nen|skym- ta för min|syn;|
!ff! cc c2 c2 | c4 c2 | BB B2 B2 | B6 | AA A2 A2 | A4 A2 | GG G2 G2 | G6 | F4 F2 | AA A2 A2 | %38
w: Klang, min vack- ra|bjäll- ra|i den se- na|kväll!|Spring min ras- ka|få- le,|ö- ver mo och|fjäll!|He- måt|i- la vi med|
!>(! FF F2 F2!>)! | A6 |!p! F4 F2 | AA A2 A2 | FF F2 F2 | A6 |!<(! G4 G2!<)! | B4 G2 | %46
w: vin- dens snab- ba|fart,|där så|vi- la vi i|mju- ka ar- mar|snart,|och vår|lyc- ka|
 E3 E!>(! EF!>)! |"^rall." G6 | F4 !fermata!z2 || %49
w: ing- en kan för-|tyc-|ka.|
!mf![Q:1/4=126]"^a tempo"[Q:1/4=126]"^a tempo"[Q:1/4=126]"^a tempo"[Q:1/4=126]"^a tempo" !>!B2 z B BB | %50
w: Klang, min vack- ra|
 B4 B2 | cc c2 c2 | B4- B z | !>!B2- BB BB | B4 B2 | cc c2 c2 | B4- B z |!ff! e4 d2 | cc c2 B2 | %59
w: bjäll- ra,|glatt i kväl- lens|ro! *|Spring, * min ras- ka|få- le,|ö- ver fjäll och|mo! *|Förs- ta|mor- gon- strå- le|
 AA A2 G2 | F4- F z | A4 G2 | FF F2 G2 | AA A2 =A2 | B4- B z | c4 c2 | B4 B2 | c3!>(! c cc | %68
w: ran- das i vårt|hem, *|al- la|sko- gar små- le|och vi le åt|dem; *|om vi|stjäl- pa,|det kan ing- en|
 B4!>)! B2 |!p! _G4 G2 | F4 F2 | _G3"^rall." G GG | F2 F2 !fermata!z2 || %73
w: hjäl- pa,|om vi|stjäl- pa,|det kan ing- en|hjäl- pa.|
[M:4/4][Q:1/4=60]"^Recitativ Bariton (tenor) solo" z8 | z8 | z8 | z8 | %77
w: ||||
[M:3/4]!f![Q:1/4=126]"^a tempo"[Q:1/4=126]"^a tempo"[Q:1/4=126]"^a tempo"[Q:1/4=126]"^a tempo" !>!B2 z B BB | %78
w: Klang, min vack- ra|
 B4 B2 | cc c2 c2 | B4- B z | !>!B3 B BB | B4 B2 | cc c2 c2 | B4- B z |!ff! e4 d2 | _dd d2 c2 | %87
w: bjäll- ra,|glatt i kväl- lens|ro! *|Spring, min ras- ka|få- le,|ö- ver fjäll och|mo! *|Förs- ta|mor- gon- strå- le|
 _cc c2 B2 | B4- B z | A4 G2 |!>(! GF F2!>)! F2 | AG G2 G2 | A4- A z |!p! =AA A2 A2 | z6 | %95
w: ran- das i vårt|hem, *|al- la|sko- gar små- le,|och vi le åt|dem; *|om vi stjäl- pa,||
"^poco rall." B!<(!B B2!<)! B2 | z6 |!mf! cc c2 c2 | z6 | %99
w: om vi stjäl- pa,||om vi stjäl- pa,||
!fff![Q:1/4=126]"^a tempo"[Q:1/4=126]"^a tempo"[Q:1/4=126]"^a tempo"[Q:1/4=126]"^a tempo" B3 G EF | %100
w: det kan ing- en|
 (G6- | G6 | F6) | E6- | E6- | E2 z2 !fermata!z2 |] %106
w: hjäl-|||pa.|||
V:2
!mf! !>!G2 z F EF | G4 G2 | AA A2 A2 | G4- G z | !>!G2- GF EE | G4 G2 | AA A2 A2 | G4- G z | %8
w: Klang, min vack- ra|bjäll- ra,|i den se- na|kväll! *|Spring, * min ras- ka|få- le,|ö- ver mo och|fjäll! *|
!ff! B4 A2 | GG G2 F2 | EE E2 E2 | C4- C z | E4 D2 | CC C2 B,2 |!>(! A,A, A,2 A,2!>)! | A,4- A, z | %16
w: Hem- åt|i- la vi med|vin- dens snab- ba|fart, *|där så|vi- la vi i|mju- ka ar- mar|snart, *|
!mf! =A,4 A,2 | !courtesy!_A,4 A,2 | =A,3"^rall." A, A,A, | B,2 B,2 z2 | z6 | %21
w: och vår|lyc- ka|ing- en kan för-|tyc- ka.||
!f!"^marc." FE B,E FE | DE FE D2 | z6 | z6 | GF EF GF | EF GF E2 | z6 |!ff! =E4 E2 | FF F2 F2 | %30
w: Al- la kväl- lens norr- sken|fläm- ta där i skyn,|||al- la säl- la min- nen|skym- ta för min syn;||Klang, min|vack- ra bjäll- ra|
 D4 D2 | EE E4 | C4 C2 | DD D2 D2 | D4 D2 | EE E4 | E4 E2 | FF F2 F2 |!>(! EE E2 E2 | F6!>)! | %40
w: i den|se- na kväll!|Spring min|ras- ka få- le,|ö- ver|mo och fjäll!|He- måt|i- la vi med|vin- dens snab- ba|fart,|
!p! E4 E2 | FF F2 F2 | EE E2 E2 | F6 |!<(! E4 E2!<)! | G4 E2 | E3 E!>(! EE!>)! |"^rall." E6 | %48
w: där så|vi- la vi i|mju- ka ar- mar|snart,|och vår|lyc- ka|ing- en kan för-|tyc-|
 D4 !fermata!z2 ||!mf! !>!G2 z F EF | G4 G2 | AA A2 A2 | G4- G z | !>!G2- GF EF | G4 G2 | %55
w: ka.|Klang, min vack- ra|bjäll- ra,|glatt i kväl- lens|ro! *|Spring, * min ras- ka|få- le,|
 AA A2 A2 | G4- G z |!ff! B4 A2 | GG G2 F2 | EE E2 D2 | C4- C z | E4 D2 | CC C2 =E2 | FF F2 F2 | %64
w: ö- ver fjäll och|mo! *|Förs- ta|mor- gon- strå- le|ran- das i vårt|hem, *|al- la|sko- gar små- le|och vi le åt|
 F4- F z | _G4 G2 | F4 F2 | _G3!>(! G GG!>)! | F4 F2 |!p! E4 E2 | D4 D2 | E3"^rall." E EE | %72
w: dem; *|om vi|stjäl- pa,|det kan ing- en|hjäl- pa,|om vi|stjäl- pa,|det kan ing- en|
 D2 D2 !fermata!z2 ||[M:4/4] z8 | z8 | z8 | z8 |[M:3/4]!f! !>!G2 z F EF | G4 G2 | AA A2 A2 | %80
w: hjäl- pa.|||||Klang, min vack- ra|bjäll- ra,|glatt i kväl- lens|
 G4- G z | !>!G3 F EF | G4 G2 | AA A2 A2 | G4- G z |!ff! =A4 _A2 | GG G2 ^F2 | %87
w: ro! *|Spring, min ras- ka|få- le,|ö- ver fjäll och|mo! *|Förs- ta|mor- gon- strå- le|
 !courtesy!=FF F2 F2 | E4- E z | D4 E2 |!>(! EE E2!>)! E2 | EE E2 E2 | E4- E z |!p! _GG G2 G2 | %94
w: ran- das i vårt|hem, *|al- la|sko- gar små- le,|och vi le åt|dem; *|om vi stjäl- pa,|
 z6 |"^poco rall." _G!<(!G G2!<)! G2 | z6 |!mf! _GG G2 G2 | z6 |!fff! !courtesy!=G3 E EE | (E6- | %101
w: |om vi stjäl- pa,||om vi stjäl- pa,||det kan ing- en|hjäl-|
 E6 | D6) | B,6- | B,6- | B,2 z2 !fermata!z2 |] %106
w: ||pa.|||
V:3
!mf! !>!e2 z B GB | e4 e2 | ee e2 e2 | e4- e z | !>!e2- eB GB | e4 e2 | ee e2 e2 | e4- e z | %8
w: Klang, min vack- ra|bjäll- ra,|i den se- na|kväll! *|Spring, * min ras- ka|få- le,|ö- ver mo och|fjäll! *|
!ff! g4 f2 | ee e2 d2 | cc c2 B2 | A4- A z | c4 B2 | AA A2 G2 |!>(! FF F2 E2!>)! | D4- D z | %16
w: Hem- åt|i- la vi med|vin- dens snab- ba|fart, *|där så|vi- la vi i|mju- ka ar- mar|snart, *|
!mf! F4 F2 | F4 F2 | F3"^rall." F FF | F2 F2 z2 | z6 |!f!"^marc." AG FG AG | FG AG F2 | z6 | z6 | %25
w: och vår|lyc- ka|ing- en kan för-|tyc- ka.||Al- la kväl- lens norr- sken|fläm- ta där i skyn,|||
 BA GA BA | GA BA G2 | z6 |!ff! G4 G2 | AA A2 A2 | F4 F2 | GG G4 | E4 E2 | FF F2 F2 | B4 B2 | %35
w: al- la säl- la min- nen|skym- ta för min syn;||Klang, min|vack- ra bjäll- ra|i den|se- na kväll!|Spring min|ras- ka få- le,|ö- ver|
 cc c4 | c4 c2 | ee e2 e2 |!>(! cc c2 c2 | e6!>)! |!p! _c4 c2 | ee e2 e2 | _cc c2 c2 | e6 | %44
w: mo och fjäll!|He- måt|i- la vi med|vin- dens snab- ba|fart,|där så|vi- la vi i|mju- ka ar- mar|snart,|
!<(! e4 e2!<)! | e4 B2 | B3 B!>(! BB!>)! |"^rall." B6 | B4 !fermata!z2 ||!mf! !>!e2 z B GB | %50
w: och vår|lyc- ka|ing- en kan för-|tyc-|ka.|Klang, min vack- ra|
 e4 e2 | ee e2 e2 | e4- e z | !>!e2- eB GB | e4 e2 | ee e2 e2 | e4- e z |!ff! g4 f2 | ee e2 d2 | %59
w: bjäll- ra,|glatt i kväl- lens|ro! *|Spring, * min ras- ka|få- le,|ö- ver fjäll och|mo! *|Förs- ta|mor- gon- strå- le|
 cc c2 B2 | A4- A z | c4 B2 | AA A2 c2 | cc c2 c2 | B4- B z | =A4 A2 | B4 B2 | =A3!>(! A AA!>)! | %68
w: ran- das i vårt|hem, *|al- la|sko- gar små- le|och vi le åt|dem; *|om vi|stjäl- pa,|det kan ing- en|
 B4 B2 |!p! c4 c2 | d4 d2 | c3"^rall." c cc | d2 d2 !fermata!z2 ||[M:4/4] F>F GF F2 B2 | %74
w: hjäl- pa,|om vi|stjäl- pa,|det kan ing- en|hjäl- pa.|Syns ett ljus ej glim- ma|
 z D/E/ G>F F2- F z | z B,/C/ DE GF z2 | z D/E/ F(G/A/) B2- B z |[M:3/4]!f! !>!e2 z B GB | e4 e2 | %79
w: i den mör- ka däld? *|Är det hem- mets skim- mer|el- ler stjär- nans * eld? *|Klang, min vack- ra|bjäll- ra,|
 ee e2 e2 | e4- e z | !>!e3 B GB | e4 e2 | ee e2 e2 | e4- e z |!ff! ^f4 =f2 | =ee e2 _e2 | %87
w: glatt i kväl- lens|ro! *|Spring, min ras- ka|få- le,|ö- ver fjäll och|mo! *|Förs- ta|mor- gon- strå- le|
 dd d2 d2 | e4- e z | _c4 B2 |!>(! !courtesy!=cc c2!>)! c2 | _dd d2 d2 | e4- e z |!p! ee e2 e2 | %94
w: ran- das i vårt|hem, *|al- la|sko- gar små- le,|och vi le åt|dem; *|om vi stjäl- pa,|
 z6 |"^poco rall." e!<(!e e2!<)! e2 | z6 |!mf! ee e2 e2 | z6 |!fff! e3 B GB | (B6- | B6 | A6) | %103
w: |om vi stjäl- pa,||om vi stjäl- pa,||det kan ing- en|hjäl-|||
 G6- | G6- | G2 z2 !fermata!z2 |] %106
w: pa.|||
V:4
 z6 |!mf! E,E, E,2 E,2 | A,,A,, A,,2 C,2 | E,4- E, z | z6 | E,E, E,2 E,2 | A,A, A,2 C2 | E4- E z | %8
w: |Klang, min bjäll- ra,|i den se- na|kväll! *||Spring, min få- le,|ö- ver mo och|fjäll! *|
 z6 | z6 | z6 |!f! CC CC C z | z6 | z6 | z6 | F,F, F,F, F, z |!mf! C,4 C,2 | =B,,4 B,,2 | %18
w: |||Hem- åt i- la vi||||där så vi- la vi|och vår|lyc- ka|
 C,3"^rall." C, C,C, | B,,2 B,,2 z2 | B,,B,, B,,2 B,,2 | B,,4 B,,2 | B,,B,, B,,2 B,,2 | B,,6 | %24
w: ing- en kan för-|tyc- ka.|Al- la kväl- lens|norr- sken|fläm- ta där i|skyn,|
 B,,B,, B,,2 B,,2 | B,,4 B,,2 | B,,B,, B,,2 B,,2 | B,,6 |!ff! B,,B,, B,,2 B,,2 | B,,4 B,,2 | %30
w: al- la säl- la|min- nen|skym- ta för min|syn;|Klang, min vack- ra|bjäll- ra|
 B,,B,, B,,2 B,,2 | B,,6 | B,,B,, B,,2 B,,2 | B,,4 B,,2 | B,,B,, B,,2 B,2 | B,6 | A,4 A,2 | %37
w: i den se- na|kväll!|Spring min ras- ka|få- le,|ö- ver mo och|fjäll!|He- måt|
 CC C2 C2 |!>(! A,A, A,2 A,2 | C6!>)! |!p! A,4 A,2 | _CC C2 C2 | A,A, A,2 A,2 | _C6 | %44
w: i- la vi med|vin- dens snab- ba|fart,|där så|vi- la vi i|mju- ka ar- mar|snart,|
!<(! B,4 B,2!<)! | E4 B,2 | G,3 G,!>(! G,A,!>)! |"^rall." B,6 | B,,4 !fermata!z2 || z6 | %50
w: och vår|lyc- ka|ing- en kan för-|tyc-|ka.||
!mf! E,E, E,2 E,2 | A,,A,, A,,2 C,2 | E,4- E, z | z6 | E,E, E,2 E,2 | A,A, A,2 C2 | E4- E z | z6 | %58
w: Klang, min bjäll- ra,|glatt i kväl- lens|ro! *||Spring, min få- le,|ö- ver fjäll och|mo! *||
 z6 | z6 |!f! CC CC C z | C4 B,2 | A,A, A,2 G,2 | F,F, F,2 E,2 | D,4- D, z | E,4 E,2 | D,4 D,2 | %67
w: ||ran- das i vårt hem,|al- la|sko- gar små- le|och vi le åt|dem; *|om vi|stjäl- pa,|
 E,3!>(! E, E,E,!>)! | D,4 D,2 |!p! =A,4 A,2 | B,4 B,2 | =A,3"^rall." A, A,A, | %72
w: det kan ing- en|hjäl- pa,|om vi|stjäl- pa,|det kan ing- en|
 B,2 B,2 !fermata!z2 ||[M:4/4] z8 | z8 | z8 | z8 |[M:3/4]!f! !>!E,2 z E, E,E, | E,4 E,2 | %79
w: hjäl- pa.|||||Klang, min vack- ra|bjäll- ra,|
 A,A, A,2 C2 | E4- E z | !>!D3 D DD | D4 D2 | DD D2 D2 | D4- D z |!ff! C4 =B,2 | %86
w: glatt i kväl- lens|ro! *|Spring, min ras- ka|få- le,|ö- ver fjäll och|mo! *|Förs- ta|
 !courtesy!_B,B, B,2 =A,2 | !courtesy!_A,A, A,2 A,2 | G,4- G, z | F,4 E,2 |!>(! A,A, A,2!>)! A,2 | %91
w: mor- gon- strå- le|ran- das i vårt|hem, *|al- la|sko- gar små- le,|
 B,B, B,2 B,2 | C4- C z |!p! _CC C2 C2 | z6 |"^poco rall." B,!<(!B, B,2!<)! B,2 | z6 | %97
w: och vi le åt|dem; *|om vi stjäl- pa,||om vi stjäl- pa,||
!mf! =A,A, A,2 A,2 | z6 |!fff! B,3 B, G,A, | (B,6- | B,6 | B,,6) | E,6- | E,6- | %105
w: om vi stjäl- pa,||det kan ing- en|hjäl-|||pa.||
 E,2 z2 !fermata!z2 |] %106
w: |

